X:11
T:Queen Of The Rushes, The
R:jig
M:6/8
L:1/8
K:Gmaj
dc|:"G"B2G GdB|"Am"c2A AGA|"G"B2G GdA|"C"cAG FGA|
"G"B2G B2G|"Am"c2A c2A|"G"ded cAd|1 "G"~G3 Gdc:|2 "G"GAG G g2||
|:"C"fed efg|"D"afd cAd|"G"~g3 bag|"D"afd d2e|
"C"=fed e^fg|"D"afd cAd|"G"ded cAd|1 "G"G3 G g2:|2 "G"G3 GBc||
"G"d (3Bcd gdB|"G"d (3Bcd gdB|"Am"cBc ABc|"Am"ABc ABc|
"G"d (3Bcd gdB|"G"d (3Bcd gdc|"Am"cBc Adc|"G"BGF GBc:||
